X: 32868
T: Porthole Of The Kelp
R: reel
M: 4/4
K: Edorian
|:G2 EF G2 EF|GGGA FDDF|G2 EF GABA|GEFD E2 EF|
G2 EF GA Bc|dBAG FEDF|EF GA BeeB|1 dBAF FEEF:|2 dBAF FEEd||
|:e2 e^d edBA|GGGA FDDF|E2 e^d edBA|Bee^d e2 ef|
g2 fe edBc|dBAG FEDF|EFGA B2 eB|1 dBAF FEEd:|2 dBAF FE E2||

